!!!!SEGMENT: pl-wumfc--n47524--001-003_karlowicz-mieczyslaw--szesc-piesni-op-6-no-3-na-sniegu.krn
!!!cenid: 18xx:4245
!!!COM: Karłowicz, Mieczysław
!!!COM-rismID: pe30108288
!!!CDT: 1876/12/11-1909/02/08
!!!CNT: Polish
!!!GTL: Sześć pieśni op. 6
!!!OTL: No. 3 Na śniegu
!!!OMV: 003
!!!PDT: 1897
!!!AGN:
!!!SMS-siglum: PL-Wumfc
!!!SMS-shelfmark: N47524
!!!SMS-shelfwork: 001-003 G
!!!SMS-variant:
!!!SMS-altvar:
!!!NIFC-rismSourceID: 1001177915
!!!NIFC-rismChildID: 1001177915
!!!NIFC-islandoraID: pl-wumfc:8021
!!!URL-pdf-islandora: https://repozytorium.nifc.pl/islandora/object/pl-wumfc:8021/datastream/PDF/view
!!!URL-scan: https://polish.musicsources.pl/pl/lokalizacje/galeria/druki-muzyczne/12515/4 @EN{Scan on Polish Music Sources Website} @PL{Skany w portalu Dziedzictwo Muzyki Polskiej w otwartym dostępie}
!!!IIIF:
!!!ONB-nifc: Skan 0004
!!!AIN: 2 piano 1 vox
!!!key: B-
**kern	**kern	**dynam	**kern	**text	**text	**dynam
*part3	*part2	*part2	*part1	*part1	*part1	*part1
*staff3	*staff2	*	*staff1	*staff1	*staff1	*
*I"[Piano]	*I"[Piano]	*	*I"[Voce]	*	*	*
*I'pf	*I'pf	*	*I'V	*	*	*
*ICklav	*ICklav	*	*ICvox	*	*	*
*Ipiano	*Ipiano	*	*Ivox	*	*	*
*clefF4	*clefG2	*	*clefG2	*	*	*
*k[b-e-]	*k[b-e-]	*	*k[b-e-]	*	*	*
*B-:	*B-:	*	*B-:	*	*	*
*M3/4	*M3/4	*	*M3/4	*	*	*
=1	=1	=1	=1	=1	=1	=1
!	!	!	!LO:TX:B:a:t=Tempo di Mazurka. M. M. [quarter] =112.	!	!	!
8.BBB-/ 8.BB-	8.r	f	2.r	.	.	.
!LO:TUP:a	!LO:TUP:a	!	!	!	!	!
(48A\LLL	(48a\LLL	.	.	.	.	.
48B-\	48b-\	.	.	.	.	.
48d\JJJ	48dd\JJJ	.	.	.	.	.
8g'\L)	8gg'\L)	.	.	.	.	.
8f'\	8ff'\	.	.	.	.	.
8d'\	8dd'\	.	.	.	.	.
8B-'\J	8b-'\J	.	.	.	.	.
=2	=2	=2	=2	=2	=2	=2
8.BBB-/ 8.BB-	8.r	.	2.r	.	.	.
!LO:TUP:a	!LO:TUP:b	!	!	!	!	!
(48F\LLL	(48f/LLL	.	.	.	.	.
48G-X\	48g-X/	.	.	.	.	.
48A\JJJ	48a/JJJ	.	.	.	.	.
8d'\L)	8dd'\L)	.	.	.	.	.
8c'\	8cc'\	.	.	.	.	.
8A'\	8a'\	.	.	.	.	.
8G-'\J	8g-'\J	.	.	.	.	.
=3	=3	=3	=3	=3	=3	=3
8.BBB-/ 8.BB-	8.r	.	2.r	.	.	.
!LO:TUP:b	!LO:TUP:b	!	!	!	!	!
(48AA/LLL	(48A/LLL	.	.	.	.	.
48BB-/	48B-/	.	.	.	.	.
48D/JJJ	48d/JJJ	.	.	.	.	.
8Gn'\L)	8gn'/L)	.	.	.	.	.
8F'\	8f'/	.	.	.	.	.
8D'\	8d'/	.	.	.	.	.
8BB-'\J	8B-'/J	.	.	.	.	.
*	*clefF4	*	*	*	*	*
=4	=4	=4	=4	=4	=4	=4
*^	*^	*	*	*	*	*
2C/	8GG\L	(8.B-/L	4En\ 4B-	.	2.r	.	.	.
.	8CC\J	.	.	.	.	.	.	.
.	.	16d/Jk	.	.	.	.	.	.
!	!	!	!	!LO:HP:t=dim.	!	!	!	!
.	4FF\	4ryy	4E-X\ 4B- 4c	>	.	.	.	.
4FFF/ 4FF	4ryy	4ryy	4E-\ 4A 4f)	.	.	.	.	.
*	*	*clefG2	*	*	*	*	*	*
!!LO:LB:g=original	!	!	!	!	!	!	!	!
=5!|:	=5!|:	=5!|:	=5!|:	=5!|:	=5!|:	=5!|:	=5!|:	=5!|:
4r	4BBB-\ 4BB-	(8f/L	4d\	mf	8f/	Gdy-	Gdy-	.
.	.	8g/J	.	.	8g/	-bym	-bym	.
2F/ 2B-	4r	4f/	2d\ 2f	.	4f/	srebr-	srebr-	.
.	4BB-\	4dd/)	.	.	4dd\	-ne	-ne	.
=6	=6	=6	=6	=6	=6	=6	=6	=6
4A/	2.BB-\ 2.F	(8.cc/L	4e-\ 4f	.	8.cc\	piór-	piór-	.
.	.	16a/Jk	.	.	16a/	-ko	-ko	.
2B-/	.	4b-/	2d\ 2f	.	4b-\	mia-	mia-	.
.	.	4f/)	.	.	4f/	-ła,	-ła,	.
*	*	*v	*v	*	*	*	*	*
=7	=7	=7	=7	=7	=7	=7	=7
2.B-/ 2.d	2G\	4r	<	8d/	To	Na	.
.	.	.	.	8e-/	bym	krysz-	.
.	.	(4b-\	.	4d/	w szro-	-ta-	.
.	4En\	4g\ 4gg	[[	4b-\	-nie	-le	.
*v	*v	*	*	*	*	*	*
=8	=8	=8	=8	=8	=8	=8
*	*^	*	*	*	*	*
4AA\ 4A	8.ff#X/L	4g\ 4cc#X	>	8.a/	je	bym	.
.	16een/Jk	.	.	16en/	ma-	pi-	.
4D\ 4A	4dd/)	4f#X\	.	4f#X/	-cza-	-sa-	.
4DD/ 4D	4r	4ryy	]]	4d/	-ła,	-ła,	.
*	*v	*v	*	*	*	*	*
!!LO:LB:g=original	!	!	!	!	!	!
=9	=9	=9	=9	=9	=9	=9
2.CC/ 2.C	4r	.	8.e-X/	W ran-	Na	.
.	.	.	16f/	-nym	krysz-	.
.	4G/ 4c 4e-	.	4e-/	szro-	-ta-	.
.	4c/ 4e- 4g	.	4g/	-nie	-le,	.
=10	=10	=10	=10	=10	=10	=10
*	*^	*	*	*	*	*
4FFF/ 4FF	4r	4ryy	.	8e-/	na	na	.
.	.	.	.	8g/	tej	tej	.
2FF/ 2C 2F	4B-/ 4b-	2e-\	.	4dd\	łą-	wo-	.
.	4A/ 4a	.	.	4cc\	-ce,	-dzie,	.
=11	=11	=11	=11	=11	=11	=11	=11
*^	*	*^	*	*	*	*	*
!	!	!	!	!	!	!LO:TX:t=cresc._:dur=4q3es:ext=ud:problem:text with extention lines 	!	!	!LO:HP:a
4BBB-/ 4BB-	4ryy	2.a-X/	4A-X\ 4e-	4ryy	.	8.cc\	Gdzie	Co	<
.	.	.	.	.	.	16dd\	bry-	sta-	.
2F/	4BB-\	.	2A-\	4d/	.	4b-\	-lan-	-nę-	.
.	[>4BB-\	.	.	4e-/	.	4cc\	-ty	-ła	.
*	*	*	*v	*v	*	*	*	*	*
=12	=12	=12	=12	=12	=12	=12	=12	=12
4BBB-/ 4BB-]	4ryy	4A-X/ 4f/\ 4a-X	4ryy	.	8dd\	le-	w jas-	.
.	.	.	.	.	8dd\	-zą	-nym	.
4C/	2BB-\	4e-/ 4ee-	2a-\	.	4gg\	drżą-	lo-	.
4F/	.	4d/ 4dd	.	.	4ff\	-ce,	-dzie,	[[
!!LO:LB:g=original	!	!	!	!	!	!	!	!
=13	=13	=13	=13	=13	=13	=13	=13	=13
!	!	!LO:TX:b:i:t=animato	!	!	!LO:TX:i:a:t=animato	!	!	!LO:DY:a
4r	[2EE-\ [2E-	8.r	4r	.	8.ff\	Le-	A-	f
.	.	(16b-/	.	.	16b-\	-żą	-ni	.
4B-/ 4e-	.	4ff/	2g\ 2b-	.	4ff\	drżą-	i-	.
4r	8EE-\L] 8E-]	4ee-/)	.	.	4ee-\	-ce,	-dzie,	.
.	8FF\J 8F	.	.	.	.	.	.	.
*v	*v	*	*	*	*	*	*	*
=14	=14	=14	=14	=14	=14	=14	=14
4GG/ 4G	(8ee-/L	4f\ 4bn	.	8ee-\	roz-	a-	.
.	8dd/J	.	.	8dd\	-sy-	-ni	.
!	!	!LO:TX:b:t=dimin._:dur=7q:ext=ud:problem:text with extention lines	!	!LO:TX:t=dimin._:dur=4q4es:ext=ud:problem:text with extention lines	!	!	!LO:DY:a
4Bn\ 4f	4.g/ 4.ee-	2g\	>	4.ee-\	-pa-	pły-	>
4GG/ 4G	.	.	.	.	.	.	.
.	8f/) 8dd	.	.	8dd\	-ne,	-nie,	.
=15	=15	=15	=15	=15	=15	=15	=15
4CC/ 4C	(8.dd/L	2f\ 2b-X	.	8.dd\	Bla-	Tyl-	.
.	16cc/Jk	.	.	16cc\	-dem	-ko	.
4B-\ 4c	4bn/	.	.	4bn\	słon-	du-	.
4C/	4cc/)	4en\ 4b-X	.	4cc\	-kiem	-ma	.
=16	=16	=16	=16	=16	=16	=16	=16
*^	*	*	*	*	*	*	*
4FF/ 4F	4ryy	(8bn/L	4e-X\ 4a	.	8bn\	ma-	w swej	.
.	.	8cc/J	.	.	8cc\	-lo-	głę-	.
4B-/	2F\	2e-/) 2ee-	4.g\	]	4.ee-\	-wa-	-bi-	]
4A/	.	.	.	.	.	.	.	.
.	.	.	8f\	.	8f/	-ne,	-nie.	.
*v	*v	*	*	*	*	*	*	*
*	*v	*v	*	*	*	*	*
!!LO:PB:g=original	!	!	!	!	!	!
=17	=17	=17	=17	=17	=17	=17
8.BBB-/ 8.BB-	8.r	f	4r	.	.	.
!LO:TUP:a	!LO:TUP:a	!	!	!	!	!
(48A\LLL	(48a\LLL	.	.	.	.	.
48B-\	48b-\	.	.	.	.	.
48d\JJJ	48dd\JJJ	.	.	.	.	.
8g'\L)	8gg'\L)	.	4r	.	.	.
8f'\	8ff'\	.	.	.	.	.
8d'\	8dd'\	.	8r	.	.	.
8B-'\J	8b-'\J	.	8b-\	Na	Na	.
=18	=18	=18	=18	=18	=18	=18
8.BBB-/ 8.BB-	8.r	.	8.dd\	na-	na-	.
!LO:TUP:a	!LO:TUP:b	!	!	!	!	!
(48F\LLL	(48f/LLL	.	16a/	-szej	-szej	.
48G-X\	48g-X/	.	.	.	.	.
48A\JJJ	48a/JJJ	.	.	.	.	.
8d'\L)	8dd'\L)	.	(8dd\L	łą-	wo-	.
8c'\	8cc'\	.	8cc\J)	.	.	.
8A'\	8a'\	.	8a/	-ce!	-dzie!	.
8G-'\J	8g-'\J	.	8r	.	.	.
=19	=19	=19	=19	=19	=19	=19
8.BBB-/ 8.BB-	8.r	.	4r	.	.	.
!LO:TUP:b	!LO:TUP:b	!	!	!	!	!
(48AA/LLL	(48A/LLL	.	.	.	.	.
48BB-/	48B-/	.	.	.	.	.
48D/JJJ	48d/JJJ	.	.	.	.	.
8Gn'\L)	8gn'/L)	.	4r	.	.	.
8F'\	8f'/	.	.	.	.	.
8D'\	8d'/	.	8r	.	.	.
8BB-'\J	8B-'/J	.	8b-\	Na	Na	.
*	*clefF4	*	*	*	*	*
=20	=20	=20	=20	=20	=20	=20
*^	*^	*	*	*	*	*
!	!	!	!	!LO:HP:t=dim.	!	!	!	!
2C/	8GG\L	(8.B-/L	4En\ 4B-	>	8.b-\	na-	na-	.
.	8CC\J	.	.	.	.	.	.	.
.	.	16d/Jk	.	.	16dd\	-szej	-szej	.
.	4FF\	4E-X\ 4B- 4c	4ryy	.	4cc\	łą-	wo-	.
4FFF/ 4FF	4ryy	4E-\ 4A) 4f	4ryy	.	8f/	-ce!	-dzie!	.
.	.	.	.	.	8r	.	.	.
*v	*v	*	*	*	*	*	*	*
*	*clefG2	*	*	*	*	*	*
*	*v	*v	*	*	*	*	*
!!LO:LB:g=original	!	!	!	!	!	!
=21:|!	=21:|!;	=21:|!;	=21:|!;	=21:|!;	=21:|!;	=21:|!;
*k[b-e-a-d-g-]	*k[b-e-a-d-g-]	*	*k[b-e-a-d-g-]	*	*	*
*	*^	*	*	*	*	*
!	!	!	!	!LO:TX:a:B:t=Meno mosso	!	!	!LO:DY:a
4B-\	(8f/L	2.d-\	p	8f/	Do	.	p
.	8g-/J	.	.	8g-/	zi-	.	.
4A-\	[<4f/	.	.	4f/	-mo-	.	.
4Gn\	4f/] 4dd-	.	.	4dd-\	-wej	.	.
=22	=22	=22	=22	=22	=22	=22	=22
*^	*	*	*	*	*	*	*
8.B-/L	4G-X\	8.cc/L	4en\	.	8.cc\	bo	.	.
16c/Jk	.	16b-/Jk	.	.	16b-\	pio-	.	.
2d-/	4F\	4f/ 4a-	4ryy	.	4a-/	-sen-	.	.
.	4D-\	4f/)	4ryy	.	4f/	-ki	.	.
*v	*v	*	*	*	*	*	*	*
=23	=23	=23	=23	=23	=23	=23	=23
4G-\	8d-/L	(>2.B-\	.	8d-/	Ni	.	.
.	8e-/J	.	.	8e-/	mi	.	.
4F\	[<4d-/	.	.	4d-/	kwie-	.	.
4E-\	4d-/] 4g-	.	.	4g-/	-cia,	.	.
=24	=24	=24	=24	=24	=24	=24	=24
*^	*	*	*	*	*	*	*
4G-\	4AA-\	8.f/L	4c\	.	8.f/	ni	.	.
.	.	16e-/Jk	.	.	16e-/	ju-	.	.
4A-/	2D-\	4d-/ 4f	4ryy	.	4f/	-trzen-	.	.
4F/	.	4d-/)	4ryy	.	4d-/	-ki,	.	.
!!LO:LB:g=original	!	!	!	!	!	!	!	!
=25	=25	=25	=25	=25	=25	=25	=25	=25
4An/	2C\	(8.f/L	2e-\	.	8.f/	Ni	.	.
!	!	!LO:TX:b:t=cre-scen-do:dur=3qs4e:ext=ud:problem:text with extention lines	!	!	!LO:TX:t=cre-scen-do:dur=3qs4e:ext=cd:problem:text with extention lines	!	!	!LO:DY:a
.	.	16g-/Jk	.	<	16g-/	błę-	.	<
2A/	.	4f/	.	.	4f/	-ki-	.	.
.	4C\	4f/	4e-\	.	4f/	-tów	.	.
=26	=26	=26	=26	=26	=26	=26	=26	=26
8A-X/L	2C-X\	8f/L	4e-\	.	8f/	te-	.	.
8G-/J	.	8g-/J	.	.	8g-/	-go	.	.
[2F/	.	4a-X/	2e-\	.	4a-/	nie-	.	.
.	4C-\	8g-/L	.	.	(8g-/L	-ba,	.	.
.	.	8f/J)	.	[[	8f/J)	.	.	[[
=27	=27	=27	=27	=27	=27	=27	=27	=27
!	!	!	!	!	!	!	!	!LO:DY:a
!	!	!	!	!	!	!	!	!LO:DY:a
4F/]	2BB-\	(8.a-/L	2e-\	mf <	8.a-/	Tyl-	.	mf <
.	.	16b-/Jk	.	.	16b-\	-ko	.	.
[2F/	.	4cc-X/	.	.	4cc-X\	śnież-	.	.
.	4BB-\	4cc-/	4e-\	.	4cc-\	-nych	.	.
!!LO:LB:g=original	!	!	!	!	!	!	!	!
=28	=28	=28	=28	=28	=28	=28	=28	=28
4F/]	2BB-\	8cc-X/L	2dn\	.	8cc-X\	pól	.	.
.	.	8dd-X/J	.	.	8dd-\	mi	.	.
2F/	.	4.cc-/	.	.	4.cc-\	trze-	.	.
.	4BBB-\ 4BB-	.	4d\	.	.	.	.	.
.	.	8b-/)	.	[[	8b-\	-ba,	.	[[
*	*	*v	*v	*	*	*	*	*
=29	=29	=29	=29	=29	=29	=29	=29
!	!	!	!	!	!	!	!LO:DY:a
*	*	*	*^	*	*	*	*
!	!	!	!	!LO:DY:b=2	!	!	!	!
4r	2.EEE-\ 2.BBB- 2.EE-	8.r	f <	sf	8.b-\	Tyl-	.	f <
.	.	[16B-/ [16e- [16g- [16b-	.	.	16b-\	-ko	.	.
4BBB-/ 4BB-	.	4B-/] 4e-] 4g-] 4b-]	.	.	4b-\	zmarz-	.	.
4CC-X/ 4C-X	.	4An/ 4e- 4g- 4an	.	.	4an/	-łych	.	.
*	*	*	*v	*v	*	*	*	*
=30	=30	=30	=30	=30	=30	=30	=30
*	*	*	*^	*	*	*	*
!	!	!	!	!LO:DY:b=2	!	!	!	!
4r	2.EEE-\ 2.BBB- 2.EE-	8.r	.	sf	8.b-\	pe-	.	.
.	.	[16B-/ [16e- [16g- [16b-	.	.	16b-\	-reł	.	.
4BBB-/ 4BB-	.	4B-/] 4e-] 4g-] 4b-]	.	.	4b-\	szro-	.	.
4CC-X/ 4C-X	.	4An/ 4e- 4g- 4an	[[	.	4an/	-nu,	.	[[
*	*	*	*v	*v	*	*	*	*
=31	=31	=31	=31	=31	=31	=31	=31
!	!	!	!	!	!	!	!LO:DY:a
*	*	*	*^	*	*	*	*
!	!	!	!	!LO:DY:b=2	!	!	!	!
4r	2.EEE-\ 2.BBB- 2.EE-	8.r	ff	sf	8.b-\	Tyl-	.	ff
.	.	[16B-/ [16e- [16g- [16b-	.	.	16ee-\	-ko	.	.
4BBB-/ 4BB-	.	4B-/] 4e-] 4g-] 4b-]	.	.	4b-\	bi-	.	.
4CC-X/ 4C-X	.	4An/ 4e- 4g- 4an	.	.	4an/	-cia	.	.
=32	=32	=32	=32	=32	=32	=32	=32	=32
!	!	!	!	!LO:DY:b=2	!	!	!	!
4r	2EEE-\ 2BBB- 2EE-	8.r	.	sf	8b-\	śmier-	.	.
.	.	.	.	.	8g-/	-ci	.	.
.	.	[16B-/ [16e- [16g- [16b-	.	.	.	.	.	.
4BBB-/ 4BB-	.	4B-/] 4e-] 4g-] 4b-]	.	.	4b-\	dzwo-	.	.
4r	4EEEn\ 4EEn	4B-/ 4d- 4g- 4b-	.	.	4b-\	-nu,	.	.
*	*	*	*v	*v	*	*	*	*
*v	*v	*	*	*	*	*	*
=33	=33	=33	=33	=33	=33	=33
2FFF/ 2FF	8r	.	4r	.	.	.
!	!LO:TX:i:b:t=rit.	!	!	!	!	!
.	4A-/ 4d- 4f 4a-	.	.	.	.	.
!	!	!	!LO:TX:a:i:t=rit.	!	!	!
.	.	.	8f/	Tyl-	.	.
.	8G-/ 8g-	.	8g-/	-ko	.	.
4FF/ 4F	4An/ 4e- 4f	.	4f/	łez	.	.
!!LO:LB:g=original	!	!	!	!	!	!
=34	=34	=34	=34	=34	=34	=34
!	!	!	!LO:TX:b:i:t=a tempo	!	!	!
8.BBB-/ 8.BB-	8.B-/ 8.d- 8.f 8.b-	.	4b-\	trze-	.	.
!LO:TUP:a	!LO:TUP:a	!	!	!	!	!
(48An\LLL	(48an\LLL	.	.	.	.	.
48B-\	48b-\	.	.	.	.	.
48d-\JJJ	48dd-\JJJ	.	.	.	.	.
8g-'\L)	8gg-'\L)	.	4b-\	-ba!	.	.
8f'\J	8ff'\	.	.	.	.	.
8d-'\L	8dd-'\	.	4r	.	.	.
8B-'\J	8b-'\J	.	.	.	.	.
=35	=35	=35	=35	=35	=35	=35
8.BBB-/ 8.BB-	8.r	.	2.r	.	.	.
!	!LO:TX:b:t=di-mi-nu-en-do:dur=10e2q:ext=cd:problem:text with extention lines	!	!	!	!	!
!LO:TUP:a	!LO:TUP:b	!	!	!	!	!
(48F\LLL	(48f/LLL	>	.	.	.	.
48G-\	48g-/	.	.	.	.	.
48An\JJJ	48an/JJJ	.	.	.	.	.
8d-'\L)	8dd-'\L)	.	.	.	.	.
8c'\	8cc'\	.	.	.	.	.
8A'\	8a'\	.	.	.	.	.
8G-'\J	8g-'\J	.	.	.	.	.
*	*clefF4	*	*	*	*	*
=36	=36	=36	=36	=36	=36	=36
8.BBB-/ 8.BB-	8.r	.	2.r	.	.	.
!LO:TUP:b	!LO:TUP:a	!	!	!	!	!
(48AAn/LLL	(48An\LLL	.	.	.	.	.
48BB-/	48B-\	.	.	.	.	.
48D-/JJJ	48d-\JJJ	.	.	.	.	.
8G-'\L)	8g-'\L)	.	.	.	.	.
8F'\	8f'\	.	.	.	.	.
8D-'\	8d-'\	.	.	.	.	.
8BB-'\J	8B-'\J	]]	.	.	.	.
=37	=37	=37	=37	=37	=37	=37
*	*^	*	*	*	*	*
8GG-/L 8BB-	8En/L	8E\	p	2.r;	.	.	.
!	!LO:TX:b:i:t=molto rit.	!	!	!	!	!	!
8FF/J 8E-X	(16d-/L	8An\	.	.	.	.	.
.	16c/JJ	.	.	.	.	.	.
8BBB-/ 8D-	8B-/)	8F\	.	.	.	.	.
8r	8r	8ryy	.	.	.	.	.
*	*clefG2	*	*	*	*	*	*
4B-;\ 4f	4dd-;\ 4bb-	4r;yy	.	.	.	.	.
*	*v	*v	*	*	*	*	*
==	==	==	==	==	==	==
*-	*-	*-	*-	*-	*-	*-
!!!system-decoration: s1{(s2,s3)}
!!!RDF**kern: > = above
!!!RDF**kern: < = below
!!!ENC: Andrzej Gręziak
!!!END: 2022-11-23
!!!ENC: Jan Barakat
!!!END: 2022-12-09
!!!YEC: Copyright 2022 Narodowy Instytut Fryderyka Chopina (https://polishscores.org)
!!!YEM: License CC-BY-4.0 (https://creativecommons.org/licenses/by/4.0)
